!! 00000] TT[WS
!!!OTL: Dui lianhua
!!!ARE: Asia, China, Shanxi Hequ
!! Ethnic Group: Han
!! WI, 103
!!!SCT: J0121
!!!YEM: Copyright 1995, estate of Helmut Schaffrath.
**kern
*ICvox
*Ivox
!! Mixed meters:  2/4; 3/4
*M3/4
*k[b-]
*F:
{8.a
16cc
8ff
8dd
=1
2cc
=2
8.dd
16dd
8d
8f
=3
2g}
=4
{4.ff
8dd
=5
2cc
=6
8.dd
16dd
8d
8f
=7
2g}
=8
{8.d
16f
8d
8f
=9
2g
=10
4cc
4ff
=11
8.dd
16ff
8dd
8cc
=12
4.b-
8d
=13
2c}
=14
{8.cc
16dd
8cc
8a
=15
4g
4d
=16
4cc
4d
=17
4f
4d
=18
8.cc
16dd
8cc
8a
=19
4g
4c}
=20
{8.cc
16dd
8cc
8a
=21
8g
4e
8c
=22
8.ff
16dd
8cc
8a
=23
8g
16g
16f
8g
8a}
=24
{8c
4c
8d
=25
8e
8g
8e
8d
=26
4c
4cc
=27
8a
8g
4d
=28
2c}
=29
{8dd
8ff
8cc
8dd
=30
8dd
8gg
8.ff
16dd
=31
8cc
8a
2cc}
=32
*M2/4
{8g
4.e
=33
8a
8dd
8cc
8a
=34
*M3/4
8cc
8a
2g}
=35
*M2/4
{8a
8cc
4e
=36
8dd
8gg
8ff
8dd
=37
*M3/4
8cc
8a
2cc}
=38
*M2/4
{8f
8d
8cc
8a
=39
8cc
4.e
=40
*M3/4
8cc
8a
2g}
=41
*M2/4
{4.f
8g
=42
2a
=43
4a
4cc
=44
8dd
8cc
8a
8g
=45
2cc
=46
2e}
=47
{8.a
16ff
8dd
8cc
=48
2a
=49
8cc
4.d
=50
8g
16g
16a
8e
8d
=51
2c}
==
!!!AGN: Xiaodiao. Qingge
!!!ONB: ESAC (Essen Associative Code) Database: CHINA
!!!AMT: irregular
!!!AIN: vox
!!!EED: Helmut Schaffrath
!!!EEV: 1.0
*-
